X:114 
T:Limerick Squire*, The 
F:file ID: cre.5/114lim_s
B:CRE5.003 (gan ainm)
N:Probably a "Squire" Jackson tune, hence my name
for it.
M:6/8
Q:160
R:jig
K:D
E|DFA def|edc dAF|G2G FAF|EDE GFE|
DFA def|edc dAF|Bcd ecA|1 dfe d2:|
|:e|fga d2e|faa agf|gbg ege|cec ABc|
dfd A2G|F2G Adc|Bcd ecA|1dfe d2:|\
[2 dfe d3-|d6|]


%%%

